X: 407
T: Yuanyuan liaojian niangjia de men
%%abc-version 2.0
%%abcx-abcm2ps-target-version 5.9.1 (29 Sep 2008)
%%abc-creator hum2abc beta
%%abcx-conversion-date 2013/10/02 07:52:30
%%abc-edited-by Helmut Schaffrath
%%humdrum-veritas 167962446
%%humdrum-veritas-data 71435131
%%continueall 1
%%barnumbers 0
L: 1/16
M: 2/4
K: Bb
g2 g2 g f' d' f' [I:setbarnb 1]| 
g2 g f2< d2 f | 
f2> c'2 b2 b f | 
g8 | 
g2 g2 g f' d' f' | 
g2 g f2< d2 f | 
f2> c'2 b2 d2 | 
c8 |]  



